src/pos-icons/account-arrow-left.svg

<svg height="24" viewBox="0 0 24 24" width="24" xmlns="http://www.w3.org/2000/svg"><path d="m18 21-3-3 3-3v2h4v2h-4zm-8-17a4 4 0 0 1 4 4 4 4 0 0 1 -4 4 4 4 0 0 1 -4-4 4 4 0 0 1 4-4m0 10c1.15 0 2.25.12 3.24.34-.78 1.01-1.24 2.28-1.24 3.66 0 .7.12 1.37.34 2h-10.34v-2c0-2.21 3.58-4 8-4z"/></svg>

<?xml version="1.0" encoding="UTF-8"?><!DOCTYPE svg PUBLIC "-//W3C//DTD SVG 1.1//EN" "http://www.w3.org/Graphics/SVG/1.1/DTD/svg11.dtd"><svg xmlns="http://www.w3.org/2000/svg" xmlns:xlink="http://www.w3.org/1999/xlink" version="1.1" id="mdi-account-arrow-left" width="24" height="24" viewBox="0 0 24 24"><path d="M18,21L15,18L18,15V17H22V19H18V21M10,4A4,4 0 0,1 14,8A4,4 0 0,1 10,12A4,4 0 0,1 6,8A4,4 0 0,1 10,4M10,14C11.15,14 12.25,14.12 13.24,14.34C12.46,15.35 12,16.62 12,18C12,18.7 12.12,19.37 12.34,20H2V18C2,15.79 5.58,14 10,14Z" /></svg>
